assets/images/favicon.svg

<?xml version="1.0" encoding="UTF-8" standalone="no"?>
<svg width="66px" height="66px" viewBox="0 0 66 66" version="1.1" xmlns="http://www.w3.org/2000/svg" xmlns:xlink="http://www.w3.org/1999/xlink">
    <!-- Generator: Sketch 42 (36781) - http://www.bohemiancoding.com/sketch -->
    <title>Welance_Logo</title>
    <desc>Created with Sketch.</desc>
    <defs></defs>
    <g id="Version-2" stroke="none" stroke-width="1" fill="none" fill-rule="evenodd">
        <g id="Welance_Landingpage-Copy-2" transform="translate(-238.000000, -64.000000)">
            <g id="Welance_Logo" transform="translate(239.000000, 65.000000)">
                <rect id="Rectangle" stroke="#343A40" stroke-width="2" fill="#343A40" x="0.637841204" y="0.467076923" width="63.0153846" height="63.0153846" rx="6"></rect>
                <path d="M39.9692015,52.8416318 C38.2740118,52.8416318 37.8977912,51.1412245 37.8038733,49.5989946 C37.7409868,48.5293747 37.4894408,43.0835128 37.4894408,42.5175342 L37.3326364,42.5175342 C36.3912611,45.0041602 35.7003333,48.2772795 35.5745603,51.1101932 C35.4180305,51.3933198 34.9775503,51.4562063 34.694973,51.4562063 C32.528821,51.4562063 32.403048,45.4130598 32.403048,42.8322413 C32.403048,40.5971614 32.7493357,34.8072086 33.7228409,34.8072086 C34.4445254,34.8072086 35.7942511,35.3731872 35.6684781,36.096794 C35.1673083,38.6776124 34.9467936,40.5666793 34.9467936,43.366914 C34.9467936,43.965297 35.0094055,44.5318248 35.0404369,44.8789364 L35.1972412,44.8789364 C36.3272761,41.730217 37.3326364,37.9540056 37.9296464,34.5864192 C37.9914344,34.2711628 38.2122237,34.0198914 38.650507,34.0198914 C39.0588574,34.0198914 40.4393399,34.4598224 40.3456967,35.0266248 C39.8123971,38.3318739 39.4680317,42.769904 39.6237376,45.9795876 L39.8442523,45.9795876 C40.157861,44.123749 42.1663847,32.4776615 44.1452502,32.4776615 C44.5843573,32.4776615 45.3370732,32.6347405 45.3370732,33.2007191 C45.3370732,33.4533636 44.8350795,34.303018 44.427553,35.4357991 C42.6376216,40.4087764 40.8487888,47.1444984 40.8487888,52.4003278 C40.8487888,52.4003278 40.5662114,52.8416318 39.9692015,52.8416318 M47.8168338,53.2815628 C45.4010581,53.2815628 43.1398899,51.0467575 43.1398899,47.1126433 C43.1398899,41.8565393 45.7454236,33.76862 48.5077616,33.76862 C49.7017815,33.76862 51.082264,34.7124669 51.082264,37.6071687 C51.082264,41.6357499 49.9843589,45.2870121 47.5043236,45.2870121 C46.153774,45.2870121 45.6836355,43.965297 45.6836355,43.965297 C45.6836355,43.965297 45.1184808,45.6341237 45.1184808,48.1825378 C45.1184808,49.6624304 45.6836355,50.7633562 47.2838089,50.7633562 C49.7017815,50.7633562 51.6474187,46.8295166 51.6474187,44.7528887 C51.6474187,44.7528887 51.6474187,44.406601 52.0876243,44.406601 C52.5887941,44.406601 52.9971445,45.0357407 52.9971445,45.9169757 C52.9971445,48.6548731 51.3019548,53.2815628 47.8168338,53.2815628 Z M46.8444821,43.3987142 C47.9426618,43.3987142 48.8851356,39.8421937 48.8851356,36.9463935 C48.8851356,35.6246783 48.6643463,35.4675993 48.5075419,35.4675993 C48.3817689,35.4675993 48.2252392,35.5928231 48.0374035,36.0344017 C47.2838638,37.7331614 46.4051003,40.3142545 46.0599111,42.6119463 C46.0599111,42.6119463 46.2164408,43.3987142 46.8444821,43.3987142 Z" id="Combined-Shape-Copy-4" fill="#F2F2F3"></path>
            </g>
        </g>
    </g>
</svg>

<svg width="66" height="66" viewBox="0 0 66 66" xmlns="http://www.w3.org/2000/svg"><title>Welance_Logo</title><g transform="translate(1 1)" fill="none" fill-rule="evenodd"><rect stroke="#343A40" stroke-width="2" fill="#343A40" x=".638" y=".467" width="63.015" height="63.015" rx="6"/><path d="M39.97 52.842c-1.696 0-2.072-1.7-2.166-3.243-.063-1.07-.315-6.515-.315-7.081h-.156c-.942 2.486-1.633 5.76-1.758 8.592-.157.283-.597.346-.88.346-2.166 0-2.292-6.043-2.292-8.624 0-2.235.346-8.025 1.32-8.025.722 0 2.071.566 1.945 1.29-.5 2.58-.721 4.47-.721 7.27 0 .598.062 1.165.093 1.512h.157a66.267 66.267 0 0 0 2.733-10.293c.061-.315.282-.566.72-.566.409 0 1.79.44 1.696 1.007-.534 3.305-.878 7.743-.722 10.953h.22c.314-1.856 2.322-13.502 4.301-13.502.44 0 1.192.157 1.192.723 0 .252-.502 1.102-.91 2.235-1.79 4.973-3.578 11.708-3.578 16.964 0 0-.283.442-.88.442m7.848.44c-2.416 0-4.677-2.235-4.677-6.17 0-5.255 2.605-13.343 5.368-13.343 1.194 0 2.574.943 2.574 3.838 0 4.029-1.098 7.68-3.578 7.68-1.35 0-1.82-1.322-1.82-1.322s-.566 1.67-.566 4.218c0 1.48.566 2.58 2.166 2.58 2.418 0 4.363-3.933 4.363-6.01 0 0 0-.346.44-.346.502 0 .91.629.91 1.51 0 2.738-1.695 7.365-5.18 7.365zm-.973-9.883c1.099 0 2.041-3.557 2.041-6.453 0-1.321-.22-1.478-.377-1.478-.126 0-.283.125-.47.566-.754 1.7-1.633 4.28-1.978 6.578 0 0 .156.787.784.787z" fill="#F2F2F3"/></g></svg>
